packages/kaspersky-hexa-ui-icons/src/iconsSVGs/24/Subnet.svg

<svg xmlns="http://www.w3.org/2000/svg" width="24" height="24" fill="none" viewBox="0 0 24 24"><path fill="#000" fill-rule="evenodd" d="M10 4c-1.1046 0-2 .8954-2 2v1c-1.6569 0-3 1.3431-3 3v3H4c-1.1046 0-2 .8954-2 2v3c0 1.1046.8954 2 2 2h4c1.1046 0 2-.8954 2-2v-3c0-1.1046-.8954-2-2-2H7v-3c0-.5523.4477-1 1-1 0 1.1046.8954 2 2 2h4c1.1046 0 2-.8954 2-2 .5523 0 1 .4477 1 1v3h-1c-1.1046 0-2 .8954-2 2v3c0 1.1046.8954 2 2 2h4c1.1046 0 2-.8954 2-2v-3c0-1.1046-.8954-2-2-2h-1v-3c0-1.6569-1.3431-3-3-3V6c0-1.1046-.8954-2-2-2zm6 11v3h4v-3zm-2-9h-4v3h4zM4 18v-3h4v3z"/></svg>

<svg width="24" height="24" viewBox="0 0 24 24" fill="none" xmlns="http://www.w3.org/2000/svg">
<path fill-rule="evenodd" clip-rule="evenodd" d="M10 4C8.89543 4 8 4.89543 8 6V7C6.34315 7 5 8.34315 5 10V13H4C2.89543 13 2 13.8954 2 15V18C2 19.1046 2.89543 20 4 20H8C9.10457 20 10 19.1046 10 18V15C10 13.8954 9.10457 13 8 13H7V10C7 9.44772 7.44772 9 8 9C8 10.1046 8.89543 11 10 11H14C15.1046 11 16 10.1046 16 9C16.5523 9 17 9.44772 17 10V13H16C14.8954 13 14 13.8954 14 15V18C14 19.1046 14.8954 20 16 20H20C21.1046 20 22 19.1046 22 18V15C22 13.8954 21.1046 13 20 13H19V10C19 8.34315 17.6569 7 16 7V6C16 4.89543 15.1046 4 14 4H10ZM16 15V18H20V15H16ZM14 6H10V9H14V6ZM4 18V15H8V18H4Z" fill="black"/>
</svg>
